X:1
T:John Brown
T:the Faithful Friend
M:C
L:1/8
R:Highland Schottische
C:Nugent Godfrey
B:Kerr – Merry Melodies, vol. 1, pg. 20 (c. 1880’s)
Z:AK/Fiddler’s Companion
F:http://www.ibiblio.org/fiddlers/JOHAN_JOHN.htm
N:Third (Am) part not always used
K:A
|: "A"(c<e) e2  "D"a>f d<f |  "A"(c<e) e2 "E7"B>c d<B \
|  "A"(c<e) e2  "D"a>f d<f | "E7"(e<c) B>c "A"A2 A2 :|
|: "A"(3cBA e>A "D"f>A a>A |  "A"(3cBA e>A "E7"(d<B) B2 \
|  "A"(3cBA e>A "D"f>A a>f | "E7"(e<c) B>c "A"A2 z2 :|
K:=f=c=g
K:Amin
|: "Am"(E<A) A>B (3cBA e2 | "Am"(e<A) A>c "E7"B2 z2 \
|  "Am"(E<A) A>B (3cBA e>d | "E7"(c<A) B>E "Am"A2 A2 :|
